assets/sonr-icons/osmo.svg

<svg xmlns="http://www.w3.org/2000/svg" width="24" height="24" fill="none" viewBox="0 0 24 24"><g clip-path="url(#clip0_79_510)"><path fill="#000" d="M19.361 18.227C20.752 15.425 20.231 12.027 18.046 9.414L20.039 5.401L21.864 6.308L22.67 4.684L11.712 -0.757996L10.906 0.866004L12.732 1.773L10.739 5.785C7.33698 5.624 4.31498 7.262 2.92298 10.064C0.922984 14.091 2.98298 19.206 7.51198 21.455C12.041 23.704 17.36 22.255 19.361 18.227ZM15.194 12.107C13.67 11.35 12.586 11.491 11.724 11.598C10.97 11.691 10.423 11.763 9.51098 11.311C8.59698 10.857 8.32298 10.377 7.95198 9.728C7.72698 9.353 7.49298 8.93301 7.11898 8.51501C8.32898 7.82001 9.80398 7.509 11.366 7.689L12.035 7.765L14.559 2.681L18.212 4.495L15.687 9.57901L16.153 10.064C17.567 11.547 18.234 13.416 18.098 15.201C17.953 15.008 17.828 14.803 17.687 14.563C17.251 13.808 16.708 12.86 15.193 12.107H15.194Z"/></g><defs><clipPath id="clip0_79_510"><path fill="#fff" d="M0 0H24V24H0z"/></clipPath></defs></svg>

<svg xmlns="http://www.w3.org/2000/svg" width="24" height="24" fill="none"><g clip-path="url(#a)"><path fill="currentColor" d="M19.361 18.227c1.391-2.802.87-6.2-1.315-8.813l1.993-4.013 1.825.907.806-1.624L11.712-.758 10.906.866l1.826.907-1.993 4.012c-3.402-.161-6.424 1.477-7.816 4.279-2 4.027.06 9.142 4.589 11.391s9.848.8 11.849-3.228m-4.167-6.12c-1.524-.757-2.608-.616-3.47-.509-.754.093-1.301.165-2.213-.287-.914-.454-1.188-.934-1.559-1.583-.225-.375-.459-.795-.833-1.213 1.21-.695 2.685-1.006 4.247-.826l.669.076 2.524-5.084 3.653 1.814-2.525 5.084.466.485c1.414 1.483 2.081 3.352 1.945 5.137a7 7 0 0 1-.411-.638c-.436-.755-.979-1.703-2.494-2.456z"/></g><defs><clipPath id="a"><path fill="#fff" d="M0 0h24v24H0z"/></clipPath></defs></svg>
